src/assets/icon/navbar_elements3.svg

<svg width="24" height="24" viewBox="0 0 24 24" fill="none" xmlns="http://www.w3.org/2000/svg">
<mask id="mask0_253_4744" style="mask-type:alpha" maskUnits="userSpaceOnUse" x="0" y="0" width="24" height="24">
<rect width="24" height="24" fill="#D9D9D9"/>
</mask>
<g mask="url(#mask0_253_4744)">
<path d="M11.25 19V15.573C10.382 15.4473 9.61758 15.1079 8.95675 14.5548C8.29592 14.0016 7.8475 13.3064 7.6115 12.4692C6.45767 12.3321 5.484 11.8423 4.6905 11C3.89683 10.1577 3.5 9.15767 3.5 8V7.30775C3.5 6.81058 3.677 6.385 4.031 6.031C4.385 5.677 4.81058 5.5 5.30775 5.5H7.327V5.30775C7.327 4.81058 7.504 4.385 7.858 4.031C8.212 3.677 8.63758 3.5 9.13475 3.5H14.8652C15.3624 3.5 15.788 3.677 16.142 4.031C16.496 4.385 16.673 4.81058 16.673 5.30775V5.5H18.6923C19.1894 5.5 19.615 5.677 19.969 6.031C20.323 6.385 20.5 6.81058 20.5 7.30775V8C20.5 9.15767 20.1032 10.1577 19.3095 11C18.516 11.8423 17.5423 12.3321 16.3885 12.4692C16.1525 13.3064 15.7041 14.0016 15.0433 14.5548C14.3824 15.1079 13.618 15.4473 12.75 15.573V19H15.5577C15.7702 19 15.9483 19.0719 16.092 19.2158C16.2358 19.3596 16.3077 19.5378 16.3077 19.7502C16.3077 19.9629 16.2358 20.141 16.092 20.2845C15.9483 20.4282 15.7702 20.5 15.5577 20.5H8.44225C8.22975 20.5 8.05167 20.4281 7.908 20.2843C7.76417 20.1404 7.69225 19.9622 7.69225 19.7498C7.69225 19.5371 7.76417 19.359 7.908 19.2155C8.05167 19.0718 8.22975 19 8.44225 19H11.25ZM7.327 10.8577V7H5.30775C5.21792 7 5.14417 7.02883 5.0865 7.0865C5.02883 7.14417 5 7.21792 5 7.30775V8C5 8.691 5.21858 9.30192 5.65575 9.83275C6.09292 10.3634 6.65 10.7051 7.327 10.8577ZM12.0022 14.1348C12.8789 14.1348 13.6233 13.8281 14.2355 13.2148C14.8477 12.6014 15.1538 11.8567 15.1538 10.9807V5.30775C15.1538 5.21792 15.1249 5.14417 15.0673 5.0865C15.0096 5.02883 14.9359 5 14.8462 5H9.15375C9.06408 5 8.99042 5.02883 8.93275 5.0865C8.87508 5.14417 8.84625 5.21792 8.84625 5.30775V10.9807C8.84625 11.8567 9.15308 12.6014 9.76675 13.2148C10.3804 13.8281 11.1256 14.1348 12.0022 14.1348ZM16.673 10.8577C17.35 10.7051 17.9071 10.3634 18.3443 9.83275C18.7814 9.30192 19 8.691 19 8V7.30775C19 7.21792 18.9712 7.14417 18.9135 7.0865C18.8558 7.02883 18.7821 7 18.6923 7H16.673V10.8577Z" fill="#CCCCCC"/>
</g>
</svg>

<svg xmlns="http://www.w3.org/2000/svg" width="24" height="24" fill="none" xmlns:v="https://vecta.io/nano"><mask id="A" maskUnits="userSpaceOnUse" x="0" y="0" width="24" height="24" mask-type="alpha"><path fill="#d9d9d9" d="M0 0h24v24H0z"/></mask><g mask="url(#A)"><path d="M11.25 19v-3.427a4.51 4.51 0 0 1-2.293-1.018c-.661-.553-1.109-1.248-1.345-2.086-1.154-.137-2.128-.627-2.921-1.469S3.5 9.158 3.5 8v-.692a1.74 1.74 0 0 1 .531-1.277A1.74 1.74 0 0 1 5.308 5.5h2.019v-.192a1.74 1.74 0 0 1 .531-1.277A1.74 1.74 0 0 1 9.135 3.5h5.73a1.74 1.74 0 0 1 1.277.531 1.74 1.74 0 0 1 .531 1.277V5.5h2.019a1.74 1.74 0 0 1 1.277.531 1.74 1.74 0 0 1 .531 1.277V8c0 1.158-.397 2.158-1.19 3s-1.767 1.332-2.921 1.469c-.236.837-.684 1.532-1.345 2.086a4.51 4.51 0 0 1-2.293 1.018V19h2.808c.213 0 .391.072.534.216s.216.322.216.534-.072.391-.216.534-.322.215-.534.215H8.442c-.213 0-.391-.072-.534-.216s-.216-.322-.216-.535.072-.391.216-.534S8.23 19 8.442 19h2.808zm-3.923-8.142V7H5.308A.3.3 0 0 0 5 7.308V8a2.8 2.8 0 0 0 .656 1.833c.437.531.994.872 1.671 1.025zm4.675 3.277c.877 0 1.621-.307 2.233-.92s.918-1.358.918-2.234V5.308A.3.3 0 0 0 14.846 5H9.154a.3.3 0 0 0-.308.308v5.673a3.04 3.04 0 0 0 .921 2.234c.614.613 1.359.92 2.235.92zm4.671-3.277c.677-.153 1.234-.494 1.671-1.025A2.8 2.8 0 0 0 19 8v-.692A.3.3 0 0 0 18.692 7h-2.019v3.858z" fill="#ccc"/></g></svg>
